icons/circle/48/chrome-knkapnclbofjjgicpkfoagdjohlfjhpd-Default.svg

<svg xmlns="http://www.w3.org/2000/svg" viewBox="0 0 48 48">
 <defs>
  <linearGradient id="linearGradient3764" x1="1" x2="47" gradientUnits="userSpaceOnUse" gradientTransform="matrix(0,-1,1,0,-1.5e-6,47.999998)">
   <stop style="stop-color:#e4e4e4;stop-opacity:1"/>
   <stop offset="1" style="stop-color:#eee;stop-opacity:1"/>
  </linearGradient>
 </defs>
 <g>
  <path d="m 36.31 5 c 5.859 4.062 9.688 10.831 9.688 18.5 c 0 12.426 -10.07 22.5 -22.5 22.5 c -7.669 0 -14.438 -3.828 -18.5 -9.688 c 1.037 1.822 2.306 3.499 3.781 4.969 c 4.085 3.712 9.514 5.969 15.469 5.969 c 12.703 0 23 -10.298 23 -23 c 0 -5.954 -2.256 -11.384 -5.969 -15.469 c -1.469 -1.475 -3.147 -2.744 -4.969 -3.781 z m 4.969 3.781 c 3.854 4.113 6.219 9.637 6.219 15.719 c 0 12.703 -10.297 23 -23 23 c -6.081 0 -11.606 -2.364 -15.719 -6.219 c 4.16 4.144 9.883 6.719 16.219 6.719 c 12.703 0 23 -10.298 23 -23 c 0 -6.335 -2.575 -12.06 -6.719 -16.219 z" style="opacity:0.05"/>
  <path d="m 41.28 8.781 c 3.712 4.085 5.969 9.514 5.969 15.469 c 0 12.703 -10.297 23 -23 23 c -5.954 0 -11.384 -2.256 -15.469 -5.969 c 4.113 3.854 9.637 6.219 15.719 6.219 c 12.703 0 23 -10.298 23 -23 c 0 -6.081 -2.364 -11.606 -6.219 -15.719 z" style="opacity:0.1"/>
  <path d="m 31.25 2.375 c 8.615 3.154 14.75 11.417 14.75 21.13 c 0 12.426 -10.07 22.5 -22.5 22.5 c -9.708 0 -17.971 -6.135 -21.12 -14.75 a 23 23 0 0 0 44.875 -7 a 23 23 0 0 0 -16 -21.875 z" style="opacity:0.2"/>
 </g>
 <g>
  <path d="m 24 1 c 12.703 0 23 10.297 23 23 c 0 12.703 -10.297 23 -23 23 -12.703 0 -23 -10.297 -23 -23 0 -12.703 10.297 -23 23 -23 z" style="fill:url(#linearGradient3764);fill-opacity:1"/>
 </g>
 <g>
  <g>
   <g transform="translate(1,1)">
    <g style="opacity:0.1">
     <!-- color: #eeeeee -->
     <g>
      <path d="m 18.664 10 c 1.332 1.34 1.324 2.406 1.324 4.02 l 0 3.336 c -4.66 1.563 -7.992 5.77 -7.992 10.734 c 0 4.258 2.469 7.973 6.117 9.926 l 11.77 0 c 3.648 -1.953 6.117 -5.668 6.117 -9.926 c 0 -4.953 -3.344 -9.156 -8 -10.734 l 0 -3.336 c 0 -1.605 -0.008 -2.676 1.324 -4.02 l -10.664 0 m 0.008 0" style="fill:#000;fill-opacity:1;stroke:none;fill-rule:nonzero"/>
     </g>
    </g>
   </g>
  </g>
 </g>
 <g>
  <path d="m 18.664 10 c 1.332 1.34 1.324 2.406 1.324 4.02 l 0 3.336 c -2.941 0.986 -5.349 3.03 -6.729 5.645 1.74 1 19.74 1 21.471 0 -1.383 -2.611 -3.796 -4.65 -6.73 -5.645 l 0 -3.336 c 0 -1.605 -0.008 -2.676 1.324 -4.02" style="fill:#6f56bd;fill-opacity:1;stroke:none;fill-rule:nonzero"/>
  <path d="m 13.25 23 c -0.801 1.523 -1.25 3.241 -1.25 5.063 c 0 4.254 2.477 7.985 6.125 9.939 l 11.75 0 c 3.648 -1.953 6.125 -5.685 6.125 -9.939 c 0 -1.82 -0.449 -3.538 -1.25 -5.063 l -21.5 0 z" style="fill:#9380cd;fill-opacity:1;stroke:none;fill-rule:nonzero"/>
  <path d="M 27,35.5 C 27,35.777 26.777,36 26.5,36 26.223,36 26,35.773 26,35.5 26,35.223 26.223,35 26.5,35 c 0.277,0 0.5,0.223 0.5,0.5 m 0,0" style="fill:#f9f9f9;fill-opacity:1;stroke:none;fill-rule:nonzero"/>
  <path d="M 25.5,33.25 C 25.5,33.664 25.164,34 24.75,34 24.336,34 24,33.664 24,33.25 c 0,-0.414 0.336,-0.75 0.75,-0.75 0.414,0 0.75,0.336 0.75,0.75 m 0,0" style="fill:#f9f9f9;fill-opacity:1;stroke:none;fill-rule:nonzero"/>
  <path d="m 27 30 c 0 0.551 -0.449 1 -1 1 -0.551 0 -1 -0.449 -1 -1 0 -0.555 0.449 -1 1 -1 0.551 0 1 0.449 1 1 m 0 0" style="fill:#f9f9f9;fill-opacity:1;stroke:none;fill-rule:nonzero"/>
  <path d="M 27,22.5 C 27,23.328 26.328,24 25.5,24 24.672,24 24,23.324 24,22.5 24,21.672 24.672,21 25.5,21 c 0.828,0 1.5,0.672 1.5,1.5 m 0,0" style="fill:#f9f9f9;fill-opacity:1;stroke:none;fill-rule:nonzero"/>
  <path d="M 24.5,26.75 C 24.5,27.441 23.941,28 23.25,28 22.559,28 22,27.437 22,26.75 c 0,-0.691 0.559,-1.25 1.25,-1.25 0.691,0 1.25,0.563 1.25,1.25 m 0,0" style="fill:#f9f9f9;fill-opacity:1;stroke:none;fill-rule:nonzero"/>
 </g>
 <g>
  <path d="m 40.03 7.531 c 3.712 4.084 5.969 9.514 5.969 15.469 0 12.703 -10.297 23 -23 23 c -5.954 0 -11.384 -2.256 -15.469 -5.969 4.178 4.291 10.01 6.969 16.469 6.969 c 12.703 0 23 -10.298 23 -23 0 -6.462 -2.677 -12.291 -6.969 -16.469 z" style="opacity:0.1"/>
 </g>
</svg>

<svg xmlns="http://www.w3.org/2000/svg" viewBox="0 0 48 48">
  <defs>
    <linearGradient id="a" x1="1" x2="47" gradientUnits="userSpaceOnUse" gradientTransform="rotate(-90 24 24)">
      <stop stop-color="#e4e4e4"/>
      <stop offset="1" stop-color="#eee"/>
    </linearGradient>
  </defs>
  <path d="M36.31 5c5.859 4.062 9.688 10.831 9.688 18.5 0 12.426-10.07 22.5-22.5 22.5-7.669 0-14.438-3.828-18.5-9.688a23.24 23.24 0 0 0 3.781 4.969 22.923 22.923 0 0 0 15.469 5.969c12.703 0 23-10.298 23-23a22.92 22.92 0 0 0-5.969-15.469A23.216 23.216 0 0 0 36.31 5zm4.969 3.781A22.911 22.911 0 0 1 47.498 24.5c0 12.703-10.297 23-23 23a22.909 22.909 0 0 1-15.719-6.219C12.939 45.425 18.662 48 24.998 48c12.703 0 23-10.298 23-23 0-6.335-2.575-12.06-6.719-16.219z" opacity=".05"/>
  <path d="M41.28 8.781a22.923 22.923 0 0 1 5.969 15.469c0 12.703-10.297 23-23 23A22.92 22.92 0 0 1 8.78 41.281 22.911 22.911 0 0 0 24.499 47.5c12.703 0 23-10.298 23-23A22.909 22.909 0 0 0 41.28 8.781z" opacity=".1"/>
  <path d="M31.25 2.375C39.865 5.529 46 13.792 46 23.505c0 12.426-10.07 22.5-22.5 22.5-9.708 0-17.971-6.135-21.12-14.75a23 23 0 0 0 44.875-7 23 23 0 0 0-16-21.875z" opacity=".2"/>
  <path d="M24 1c12.703 0 23 10.297 23 23S36.703 47 24 47 1 36.703 1 24 11.297 1 24 1z" fill="url(#a)"/>
  <path d="M19.664 11c1.332 1.34 1.324 2.406 1.324 4.02v3.336c-4.66 1.563-7.992 5.77-7.992 10.734 0 4.258 2.469 7.973 6.117 9.926h11.77C34.531 37.063 37 33.348 37 29.09c0-4.953-3.344-9.156-8-10.734V15.02c0-1.605-.008-2.676 1.324-4.02H19.66m.008 0" opacity=".1"/>
  <g>
    <path d="M18.664 10c1.332 1.34 1.324 2.406 1.324 4.02v3.336c-2.941.986-5.349 3.03-6.729 5.645 1.74 1 19.74 1 21.471 0-1.383-2.611-3.796-4.65-6.73-5.645V14.02c0-1.605-.008-2.676 1.324-4.02" fill="#6f56bd"/>
    <path d="M13.25 23A10.831 10.831 0 0 0 12 28.063c0 4.254 2.477 7.985 6.125 9.939h11.75C33.523 36.049 36 32.317 36 28.063c0-1.82-.449-3.538-1.25-5.063h-21.5z" fill="#9380cd"/>
    <path d="M27 35.5a.499.499 0 1 1-1 0 .499.499 0 1 1 1 0m0 0M25.5 33.25a.75.75 0 1 1-1.5 0 .75.75 0 0 1 1.5 0m0 0M27 30c0 .551-.449 1-1 1a1 1 0 1 1 1-1m0 0M27 22.5a1.5 1.5 0 1 1-3.001-.001A1.5 1.5 0 0 1 27 22.5m0 0M24.5 26.75a1.25 1.25 0 1 1-2.498.002 1.25 1.25 0 0 1 2.498-.002m0 0" fill="#f9f9f9"/>
  </g>
  <g>
    <path d="M40.03 7.531A22.922 22.922 0 0 1 45.999 23c0 12.703-10.297 23-23 23A22.92 22.92 0 0 1 7.53 40.031C11.708 44.322 17.54 47 23.999 47c12.703 0 23-10.298 23-23 0-6.462-2.677-12.291-6.969-16.469z" opacity=".1"/>
  </g>
</svg>
